client/public/img/game/shared/obstacles/lighthouse_crate.svg

<?xml version="1.0" encoding="UTF-8" standalone="no"?>
<!-- Created with Inkscape (http://www.inkscape.org/) -->

<svg
   width="125.47404"
   height="140.49628"
   viewBox="0 0 33.198341 37.172974"
   version="1.1"
   id="svg1"
   xmlns="http://www.w3.org/2000/svg"
   xmlns:svg="http://www.w3.org/2000/svg">
  <defs
     id="defs1" />
  <g
     id="layer1"
     transform="translate(-110.06666,-127)">
    <g
       id="layer1-3"
       transform="translate(109.95394,126.93336)">
      <path
         style="display:inline;fill:#79512a;fill-opacity:1;stroke:#2c1d0f;stroke-width:1.58748;stroke-linecap:round;stroke-linejoin:round;stroke-dasharray:none;stroke-opacity:1;paint-order:normal"
         d="M 22.616165,33.951909 H 10.806333 V 3.3543452 H 22.616165 V 13.5826 Z"
         id="path1" />
      <path
         style="display:inline;fill:#79512a;fill-opacity:1;stroke:#2c1d0f;stroke-width:1.5875;stroke-linecap:round;stroke-linejoin:round;stroke-dasharray:none;stroke-opacity:1"
         d="M 32.431025,34.730898 H 22.203171 V 2.5643564 h 10.226854 z"
         id="path2-4" />
      <path
         style="fill:#79512a;fill-opacity:1;stroke:#2c1d0f;stroke-width:1.5875;stroke-linecap:round;stroke-linejoin:round;stroke-dasharray:none;stroke-opacity:1"
         d="M 11.215327,34.730898 H 0.98847267 V 2.5643564 H 11.215327 Z"
         id="path3" />
      <path
         style="fill:#614021;fill-opacity:1;stroke:#2c1d0f;stroke-width:1.58748;stroke-linecap:round;stroke-linejoin:round;stroke-dasharray:none;stroke-opacity:1;paint-order:normal"
         d="M 29.799062,3.294346 H 26.183114 V 0.86038067 h 3.615948 z m -21.7506898,0 H 4.4324237 V 0.86038067 H 8.0483722 Z M 29.799062,36.445874 h -3.615948 v -2.433965 h 3.615948 z m -21.7506898,0 H 4.4324237 v -2.433965 h 3.6159485 z"
         id="path4" />
      <path
         style="fill:#8f6232;fill-opacity:1;stroke:#2c1d0f;stroke-width:1.5875;stroke-linecap:round;stroke-linejoin:round;stroke-dasharray:none;stroke-opacity:1;paint-order:normal"
         d="M 32.517314,30.951952 H 0.90647387 V 26.665013 H 32.517314 Z m 0,-20.461708 H 0.90647387 V 6.2033046 H 32.517314 Z"
         id="path5" />
      <path
         style="fill:#3d3d3d;fill-opacity:1;stroke:#191919;stroke-width:1.05832;stroke-linecap:round;stroke-linejoin:round;stroke-dasharray:none;stroke-opacity:1;paint-order:normal"
         d="M 18.900218,3.8703378 H 14.52228 v -1.757975 h 4.377938 z"
         id="path6" />
      <path
         style="fill:#3d3d3d;stroke:#191919;stroke-width:1.05832;stroke-linecap:round;stroke-linejoin:round;stroke-opacity:1"
         d="m 23.593151,35.28789 h -2.989958 v -1.599977 h 2.989958 z m -10.597849,0.075 h -2.991958 v -1.599977 h 2.991958 z"
         id="path7" />
      <g
         transform="matrix(0.39570437,0,0,0.39570437,-9.6303757,-7.6885002)"
         id="g11" />
      <g
         id="g3-8"
         transform="matrix(0.7253898,1.2178617,-1.237137,0.69200436,-35.239817,-15.257951)"
         style="fill:none;fill-opacity:1;stroke:#d8d8d8;stroke-width:0.206628;stroke-dasharray:none;stroke-opacity:1">
        <g
           id="g2-4"
           transform="translate(13.936789,10.872155)"
           style="fill:none;fill-opacity:1;stroke:#d8d8d8;stroke-width:0.206628;stroke-dasharray:none;stroke-opacity:1">
          <path
             style="fill:#d8d8d8;fill-opacity:1;stroke:none;stroke-width:0.29853;stroke-linecap:round;stroke-linejoin:round;stroke-miterlimit:29;stroke-dasharray:none;stroke-opacity:1"
             id="path1-6"
             d="m 2.5603774,-1.9395439 -3.48012243,-1.4579116 -2.28491877,3.00264966 1.4579116,-3.48012246 -3.0026497,-2.2849187 3.4801225,1.4579115 2.2849187,-3.0026496 -1.45791156,3.4801224 z"
             transform="matrix(0.69215194,0,0,0.69215194,24.42168,-27.650403)" />
          <path
             style="fill:#d8d8d8;fill-opacity:1;stroke:none;stroke-width:0.409305;stroke-linecap:round;stroke-linejoin:round;stroke-miterlimit:29;stroke-dasharray:none;stroke-opacity:1"
             id="path1-5"
             d="m 2.5603774,-1.9395439 -3.48012243,-1.4579116 -2.28491877,3.00264966 1.4579116,-3.48012246 -3.0026497,-2.2849187 3.4801225,1.4579115 2.2849187,-3.0026496 -1.45791156,3.4801224 z"
             transform="matrix(0.35696657,0.35696657,-0.35696657,0.35696657,22.60921,-28.617097)" />
        </g>
      </g>
      <g
         id="g1-1"
         transform="matrix(0.38090338,-0.21991467,0.21991467,0.38090338,-44.118343,4.7699201)"
         style="fill:#d8d8d8;fill-opacity:1;stroke:#d8d8d8;stroke-opacity:1">
        <rect
           style="opacity:1;fill:#d8d8d8;fill-opacity:1;stroke:#d8d8d8;stroke-width:1.058;stroke-linejoin:round;stroke-dasharray:none;stroke-opacity:1"
           id="rect3"
           width="5.5531774"
           height="2.7730489"
           x="102.22341"
           y="107.2056" />
        <g
           id="g8-9"
           transform="translate(-5e-6,-0.77446583)"
           style="fill:#d8d8d8;fill-opacity:1;stroke:#d8d8d8;stroke-opacity:1" />
      </g>
      <path
         style="fill:#d8d8d8;fill-opacity:1;fill-rule:evenodd;stroke:none;stroke-width:0.278518;stroke-linecap:round;stroke-linejoin:round;stroke-miterlimit:29;stroke-dasharray:none;stroke-opacity:1"
         d="m 18.036794,17.708889 2.638099,4.675333 -1.945712,1.123357 -1.716241,-2.972616 -1.716241,-2.972616 1.463404,2.534688 0.196802,-1.735029 2.431191,1.741138 -1.63229,-2.392481 z"
         id="path8" />
    </g>
  </g>
</svg>

<svg xmlns="http://www.w3.org/2000/svg" width="125.474" height="140.496" viewBox="0 0 33.198 37.173"><path d="M22.616 33.952h-11.81V3.354h11.81v10.229Z" style="display:inline;fill:#79512a;fill-opacity:1;stroke:#2c1d0f;stroke-width:1.58748;stroke-linecap:round;stroke-linejoin:round;stroke-dasharray:none;stroke-opacity:1;paint-order:normal" transform="translate(-.113 -.067)"/><path d="M32.431 34.73H22.203V2.565H32.43z" style="display:inline;fill:#79512a;fill-opacity:1;stroke:#2c1d0f;stroke-width:1.5875;stroke-linecap:round;stroke-linejoin:round;stroke-dasharray:none;stroke-opacity:1" transform="translate(-.113 -.067)"/><path d="M11.215 34.73H.988V2.565h10.227Z" style="fill:#79512a;fill-opacity:1;stroke:#2c1d0f;stroke-width:1.5875;stroke-linecap:round;stroke-linejoin:round;stroke-dasharray:none;stroke-opacity:1" transform="translate(-.113 -.067)"/><path d="M29.8 3.294h-3.617V.86H29.8zm-21.752 0H4.432V.86h3.616ZM29.8 36.446h-3.616v-2.434H29.8zm-21.75 0H4.431v-2.434h3.616z" style="fill:#614021;fill-opacity:1;stroke:#2c1d0f;stroke-width:1.58748;stroke-linecap:round;stroke-linejoin:round;stroke-dasharray:none;stroke-opacity:1;paint-order:normal" transform="translate(-.113 -.067)"/><path d="M32.517 30.952H.907v-4.287h31.61Zm0-20.462H.907V6.203h31.61Z" style="fill:#8f6232;fill-opacity:1;stroke:#2c1d0f;stroke-width:1.5875;stroke-linecap:round;stroke-linejoin:round;stroke-dasharray:none;stroke-opacity:1;paint-order:normal" transform="translate(-.113 -.067)"/><path d="M18.9 3.87h-4.378V2.112H18.9z" style="fill:#3d3d3d;fill-opacity:1;stroke:#191919;stroke-width:1.05832;stroke-linecap:round;stroke-linejoin:round;stroke-dasharray:none;stroke-opacity:1;paint-order:normal" transform="translate(-.113 -.067)"/><path d="M23.593 35.288h-2.99v-1.6h2.99zm-10.598.075h-2.992v-1.6h2.992z" style="fill:#3d3d3d;stroke:#191919;stroke-width:1.05832;stroke-linecap:round;stroke-linejoin:round;stroke-opacity:1" transform="translate(-.113 -.067)"/><g stroke="none" style="fill:none;fill-opacity:1;stroke:#d8d8d8;stroke-width:.206628;stroke-dasharray:none;stroke-opacity:1"><path d="M2.56-1.94-.92-3.397-3.205-.395l1.458-3.48-3.002-2.285 3.48 1.458 2.285-3.003-1.458 3.48z" style="fill:#d8d8d8;fill-opacity:1;stroke:none;stroke-width:.29853;stroke-linecap:round;stroke-linejoin:round;stroke-miterlimit:29;stroke-dasharray:none;stroke-opacity:1" transform="matrix(.50208 .84295 -.85629 .47897 13.23 19.78)"/><path d="M2.56-1.94-.92-3.397-3.205-.395l1.458-3.48-3.002-2.285 3.48 1.458 2.285-3.003-1.458 3.48z" style="fill:#d8d8d8;fill-opacity:1;stroke:none;stroke-width:.409305;stroke-linecap:round;stroke-linejoin:round;stroke-miterlimit:29;stroke-dasharray:none;stroke-opacity:1" transform="matrix(-.18268 .68176 -.70056 -.18771 13.11 16.904)"/></g><g style="fill:#d8d8d8;fill-opacity:1;stroke:#d8d8d8;stroke-opacity:1"><path d="M102.223 107.206h5.553v2.773h-5.553z" style="opacity:1;fill:#d8d8d8;fill-opacity:1;stroke:#d8d8d8;stroke-width:1.058;stroke-linejoin:round;stroke-dasharray:none;stroke-opacity:1" transform="rotate(-30 -13.34 84.888)scale(.43983)"/></g><path d="m18.037 17.709 2.638 4.675-1.946 1.124-1.716-2.973-1.716-2.973 1.463 2.535.197-1.735 2.431 1.741-1.632-2.392z" style="fill:#d8d8d8;fill-opacity:1;fill-rule:evenodd;stroke:none;stroke-width:.278518;stroke-linecap:round;stroke-linejoin:round;stroke-miterlimit:29;stroke-dasharray:none;stroke-opacity:1" transform="translate(-.113 -.067)"/></svg>
